X:152 
T:O'Keeffe's Musical Globe* (slide)  
F:file ID: cre.5/152ok_mg
N:This tune came to Breathnach from Kerry melodeon player Denis O'Keeffe, 
whose instrument at the time was a 1930's "Globe" from America.
B:CRE5.066 (gan ainm)
Q:160
M:12/8
R:slide
K:D
B/c/|dcd A2G F2G A2B|cBc A2G FGA D3|
dcd A2G F2G A2B|cBc ABc d3 d2:|
e|fdf def gfg efg|afd dcd edB A2e|
fdf def gfg efg|adf cBA d3 d2:|


%%%

